icons/pencil-ruler-fill.svg

<svg xmlns="http://www.w3.org/2000/svg" width="24" height="24" fill="none"><g clip-path="url(#a)"><g><path fill="#121212" d="M5 18V20H9V18H5ZM3 7L7 2L11 7V22H3V7ZM21 8H19V10H21V12H18V14H21V16H19V18H21V21C21 21.2652 20.8946 21.5196 20.7071 21.7071C20.5196 21.8946 20.2652 22 20 22H14C13.7348 22 13.4804 21.8946 13.2929 21.7071C13.1054 21.5196 13 21.2652 13 21V5C13 4.73478 13.1054 4.48043 13.2929 4.29289C13.4804 4.10536 13.7348 4 14 4H20C20.2652 4 20.5196 4.10536 20.7071 4.29289C20.8946 4.48043 21 4.73478 21 5V8Z"/></g></g><defs><clipPath id="a"><rect width="24" height="24" fill="white"/></clipPath></defs></svg>

<svg width="24" height="24" fill="none" xmlns="http://www.w3.org/2000/svg"><g clip-path="url(#a)"><path d="M5 18v2h4v-2H5ZM3 7l4-5 4 5v15H3V7Zm18 1h-2v2h2v2h-3v2h3v2h-2v2h2v3a1 1 0 0 1-1 1h-6a1 1 0 0 1-1-1V5a1 1 0 0 1 1-1h6a1 1 0 0 1 1 1v3Z" /></g><defs><clipPath id="a"><path fill="#fff" d="M0 0h24v24H0z"/></clipPath></defs></svg>
